svgs/tapatalk_pro.svg

<svg id="Layer_1" data-name="Layer 1" xmlns="http://www.w3.org/2000/svg" viewBox="0 0 24 24">
  <g>
    <path d="M20.25483,6.78036h-5.9216a.32447.32447,0,0,1-.32458-.32459V2.71069a.32448.32448,0,0,1,.32458-.3246h.28133A9.71727,9.71727,0,0,0,4.07494,17.4581L2.62023,21.31548a.50414.50414,0,0,0,.75471.59521l3.128-2.11975A9.71289,9.71289,0,0,0,20.91274,8.122,9.6177,9.6177,0,0,0,20.25483,6.78036ZM8.08945,9.94015l3.41969-4.39109a.24252.24252,0,0,1,.4337.1492V8.37712h2.22492c.2861,0,.2861,2.12849,0,2.12849H8.36563A.35009.35009,0,0,1,8.08945,9.94015Zm6.56243,8.23736a6.9373,6.9373,0,0,1-3.832-.1861,2.9569,2.9569,0,0,1-1.50071-2.55268v-3.884l2.62328-.53848v3.6193s-.04285,1.1079.70992,1.42534a3.87385,3.87385,0,0,0,1.73166-.0496A4.31181,4.31181,0,0,1,14.65188,18.17751Z"/>
    <path d="M18.06521,3.75945h-.40433v.73331h.40635a.41638.41638,0,0,0,.29361-.09643.346.346,0,0,0,.104-.26586.36855.36855,0,0,0-.09839-.27181A.40643.40643,0,0,0,18.06521,3.75945Z"/>
    <path d="M14.40546,2.7829V6.38355h6.076l.11505.19484q.22977.38927.42541.80076l.75827-.89521a.07708.07708,0,0,0,.01868-.05079V2.7829Zm2.16063,1.944a1.02344,1.02344,0,0,1-.68015.20714h-.44126v.86068h-.50353V3.35193h.95312a1.10388,1.10388,0,0,1,.48412.1004.74594.74594,0,0,1,.32143.28609.80152.80152,0,0,1,.1123.42221A.70158.70158,0,0,1,16.56609,4.72687Zm2.49432,1.06782H18.52l-.45788-.89441h-.40119v.89441h-.50314V3.35193h.90747a1.02554,1.02554,0,0,1,.66783.19285.66523.66523,0,0,1,.23491.54522.7549.7549,0,0,1-.10792.417.74.74,0,0,1-.32814.26587l.52852.99837Zm2.29673-1.16623a1.47349,1.47349,0,0,1-.12738.63252.962.962,0,0,1-.365.41982,1.07842,1.07842,0,0,1-1.08646.00159.971.971,0,0,1-.36906-.417,1.43332,1.43332,0,0,1-.13253-.62338V4.52133a1.46507,1.46507,0,0,1,.13016-.6353.969.969,0,0,1,.36744-.421,1.07694,1.07694,0,0,1,1.08568,0,.97437.97437,0,0,1,.36744.421,1.46635,1.46635,0,0,1,.12974.63371Z"/>
    <path d="M20.3171,3.73445a.44747.44747,0,0,0-.39084.19722,1.00955,1.00955,0,0,0-.13927.57775v.119a1.04029,1.04029,0,0,0,.1373.58054.48186.48186,0,0,0,.78528.00754,1.03592,1.03592,0,0,0,.13768-.57935V4.51776a1.028,1.028,0,0,0-.13768-.58371A.44861.44861,0,0,0,20.3171,3.73445Z"/>
    <path d="M15.90621,3.75945h-.46153v.76664h.44959a.44143.44143,0,0,0,.30435-.09365.34133.34133,0,0,0,.10517-.26864.40223.40223,0,0,0-.10595-.29007A.39441.39441,0,0,0,15.90621,3.75945Z"/>
  </g>
</svg>

<?xml version="1.0" encoding="UTF-8" standalone="no"?>
<svg
   id="Layer_1"
   data-name="Layer 1"
   viewBox="0 0 24 24"
   version="1.1"
   sodipodi:docname="tapatalk_pro.svg"
   inkscape:version="1.1.1 (3bf5ae0d25, 2021-09-20)"
   xmlns:inkscape="http://www.inkscape.org/namespaces/inkscape"
   xmlns:sodipodi="http://sodipodi.sourceforge.net/DTD/sodipodi-0.dtd"
   xmlns="http://www.w3.org/2000/svg"
   xmlns:svg="http://www.w3.org/2000/svg">
  <defs
     id="defs17" />
  <sodipodi:namedview
     id="namedview15"
     pagecolor="#ffffff"
     bordercolor="#666666"
     borderopacity="1.0"
     inkscape:pageshadow="2"
     inkscape:pageopacity="0.0"
     inkscape:pagecheckerboard="0"
     showgrid="false"
     inkscape:zoom="32.375"
     inkscape:cx="11.984556"
     inkscape:cy="12"
     inkscape:window-width="2560"
     inkscape:window-height="1015"
     inkscape:window-x="0"
     inkscape:window-y="32"
     inkscape:window-maximized="1"
     inkscape:current-layer="Layer_1" />
  <g
     id="g12"
     transform="matrix(1.0003465,0,0,1.0003465,-0.00418656,-0.00527163)">
    <path
       d="m 20.25483,6.78036 h -5.9216 A 0.32447,0.32447 0 0 1 14.00865,6.45577 V 2.71069 a 0.32448,0.32448 0 0 1 0.32458,-0.3246 h 0.28133 A 9.71727,9.71727 0 0 0 4.07494,17.4581 l -1.45471,3.85738 a 0.50414,0.50414 0 0 0 0.75471,0.59521 l 3.128,-2.11975 A 9.71289,9.71289 0 0 0 20.91274,8.122 9.6177,9.6177 0 0 0 20.25483,6.78036 Z M 8.08945,9.94015 11.50914,5.54906 a 0.24252,0.24252 0 0 1 0.4337,0.1492 v 2.67886 h 2.22492 c 0.2861,0 0.2861,2.12849 0,2.12849 H 8.36563 A 0.35009,0.35009 0 0 1 8.08945,9.94015 Z m 6.56243,8.23736 a 6.9373,6.9373 0 0 1 -3.832,-0.1861 2.9569,2.9569 0 0 1 -1.50071,-2.55268 v -3.884 l 2.62328,-0.53848 v 3.6193 c 0,0 -0.04285,1.1079 0.70992,1.42534 a 3.87385,3.87385 0 0 0 1.73166,-0.0496 4.31181,4.31181 0 0 1 0.26785,2.16622 z"
       id="path2" />
    <path
       d="m 18.06521,3.75945 h -0.40433 v 0.73331 h 0.40635 a 0.41638,0.41638 0 0 0 0.29361,-0.09643 0.346,0.346 0 0 0 0.104,-0.26586 0.36855,0.36855 0 0 0 -0.09839,-0.27181 0.40643,0.40643 0 0 0 -0.30124,-0.09921 z"
       id="path4" />
    <path
       d="m 14.40546,2.7829 v 3.60065 h 6.076 l 0.11505,0.19484 q 0.22977,0.38927 0.42541,0.80076 L 21.78019,6.48394 A 0.07708,0.07708 0 0 0 21.79887,6.43315 V 2.7829 Z m 2.16063,1.944 A 1.02344,1.02344 0 0 1 15.88594,4.93404 H 15.44468 V 5.79472 H 14.94115 V 3.35193 h 0.95312 a 1.10388,1.10388 0 0 1 0.48412,0.1004 0.74594,0.74594 0 0 1 0.32143,0.28609 0.80152,0.80152 0 0 1 0.1123,0.42221 0.70158,0.70158 0 0 1 -0.24603,0.56624 z m 2.49432,1.06782 H 18.52 L 18.06212,4.90031 H 17.66093 V 5.79472 H 17.15779 V 3.35193 h 0.90747 A 1.02554,1.02554 0 0 1 18.73309,3.54478 0.66523,0.66523 0 0 1 18.968,4.09 0.7549,0.7549 0 0 1 18.86008,4.507 0.74,0.74 0 0 1 18.53194,4.77287 l 0.52852,0.99837 z m 2.29673,-1.16623 a 1.47349,1.47349 0 0 1 -0.12738,0.63252 0.962,0.962 0 0 1 -0.365,0.41982 1.07842,1.07842 0 0 1 -1.08646,0.00159 0.971,0.971 0 0 1 -0.36906,-0.417 1.43332,1.43332 0 0 1 -0.13253,-0.62338 V 4.52133 a 1.46507,1.46507 0 0 1 0.13016,-0.6353 0.969,0.969 0 0 1 0.36744,-0.421 1.07694,1.07694 0 0 1 1.08568,0 0.97437,0.97437 0 0 1 0.36744,0.421 1.46635,1.46635 0 0 1 0.12974,0.63371 z"
       id="path6" />
    <path
       d="m 20.3171,3.73445 a 0.44747,0.44747 0 0 0 -0.39084,0.19722 1.00955,1.00955 0 0 0 -0.13927,0.57775 v 0.119 a 1.04029,1.04029 0 0 0 0.1373,0.58054 0.48186,0.48186 0 0 0 0.78528,0.00754 1.03592,1.03592 0 0 0 0.13768,-0.57935 V 4.51776 A 1.028,1.028 0 0 0 20.70957,3.93405 0.44861,0.44861 0 0 0 20.3171,3.73445 Z"
       id="path8" />
    <path
       d="m 15.90621,3.75945 h -0.46153 v 0.76664 h 0.44959 A 0.44143,0.44143 0 0 0 16.19862,4.43244 0.34133,0.34133 0 0 0 16.30379,4.1638 0.40223,0.40223 0 0 0 16.19784,3.87373 0.39441,0.39441 0 0 0 15.90621,3.75945 Z"
       id="path10" />
  </g>
</svg>
